chrome/WhiteSur/icons/permissions-granted.svg

<?xml version="1.0" encoding="UTF-8"?>
<svg xmlns="http://www.w3.org/2000/svg" xmlns:xlink="http://www.w3.org/1999/xlink" width="16px" height="16px" viewBox="0 0 16 16" version="1.1">
<g id="surface1">
<path style=" stroke:none;fill-rule:nonzero;fill:rgb(0%,0%,0%);fill-opacity:1;" d="M 5.332031 8.667969 C 4.09375 8.667969 3.058594 9.519531 2.761719 10.667969 L 1.332031 10.667969 L 1.332031 12 L 2.761719 12 C 3.058594 13.148438 4.09375 14 5.332031 14 C 6.574219 14 7.605469 13.148438 7.90625 12 L 14.667969 12 L 14.667969 10.667969 L 7.90625 10.667969 C 7.605469 9.519531 6.574219 8.667969 5.332031 8.667969 M 5.332031 12.667969 C 4.601562 12.667969 4 12.066406 4 11.332031 C 4 10.601562 4.601562 10 5.332031 10 C 6.066406 10 6.667969 10.601562 6.667969 11.332031 C 6.667969 12.066406 6.066406 12.667969 5.332031 12.667969 M 13.238281 4 C 12.941406 2.851562 11.90625 2 10.667969 2 C 9.425781 2 8.394531 2.851562 8.09375 4 L 1.332031 4 L 1.332031 5.332031 L 8.09375 5.332031 C 8.394531 6.480469 9.425781 7.332031 10.667969 7.332031 C 11.90625 7.332031 12.941406 6.480469 13.238281 5.332031 L 14.667969 5.332031 L 14.667969 4 L 13.238281 4 M 10.667969 6 C 9.933594 6 9.332031 5.398438 9.332031 4.667969 C 9.332031 3.933594 9.933594 3.332031 10.667969 3.332031 C 11.398438 3.332031 12 3.933594 12 4.667969 C 12 5.398438 11.398438 6 10.667969 6 Z M 10.667969 6 "/>
</g>
</svg>

<?xml version="1.0"?>
<svg width="16" height="16" xmlns="http://www.w3.org/2000/svg" xmlns:svg="http://www.w3.org/2000/svg" version="1.1">
 <g class="layer">
  <title>Layer 1</title>
  <g id="surface1">
   <path d="m5.33,8.67c-1.24,0 -2.27,0.85 -2.57,2l-1.43,0l0,1.33l1.43,0c0.3,1.15 1.33,2 2.57,2c1.24,0 2.28,-0.85 2.58,-2l6.76,0l0,-1.33l-6.76,0c-0.3,-1.15 -1.34,-2 -2.58,-2m0,4c-0.73,0 -1.33,-0.6 -1.33,-1.34c0,-0.73 0.6,-1.33 1.33,-1.33c0.74,0 1.34,0.6 1.34,1.33c0,0.74 -0.6,1.34 -1.34,1.34m7.91,-8.67c-0.3,-1.15 -1.33,-2 -2.57,-2c-1.24,0 -2.28,0.85 -2.58,2l-6.76,0l0,1.33l6.76,0c0.3,1.15 1.34,2 2.58,2c1.24,0 2.27,-0.85 2.57,-2l1.43,0l0,-1.33l-1.43,0m-2.57,2c-0.74,0 -1.34,-0.6 -1.34,-1.33c0,-0.74 0.6,-1.34 1.34,-1.34c0.73,0 1.33,0.6 1.33,1.34c0,0.73 -0.6,1.33 -1.33,1.33zm0,0" fill="#363636" fill-rule="nonzero" id="svg_1"/>
  </g>
 </g>
</svg>
